X:33
T:Jessy the Flower of Dumblane. RH.033
R:Air
S:Rev.R.Harrison’s MS,c1815,Cumbria
N:Works nicely as a waltz. PJH.
O:England
A:Temple Sowerby,Cumbria
Z:vmp.Simon Wilson. Review PJH, 2008.
M:6/8
L:1/8
Q:3/8=60
K:D
d/e/|f>gf e<ae|{e}d>cd {f}ecA|\
A>BG FAd|d>ef/ fe (d/e/)|!
f>gf e<af|{e}d>cd ecA|{B}A>BG FAd|eBc{c}d2||!
d/e/|fde fba|fde fdB/d/|\
ecd eaf/e/|c>dB {A}A2d/e/|!
fde fde|f>aa {a}gef|\
g>ab afd|eBc d e/d/c/B/|!
A>BG FAd|f>ga gef|g>ab afd|eBc d2|]

